X: 25748
T: Mary O'Neill's
R: reel
M: 4/4
K: Dmajor
|:F2~F2AFDE|F2EG FDDE|F2~F2AFDE|1 ~F2EF D2DE:|2 ~F2EF D2FA||
|:d2AG FGAB|Ad ~d2cdec|d2AG FGAB|1 AFEG FD D2:|2 AFEG FD=FD||

